assets/swan.svg

<svg viewBox="0 0 72 72" xmlns="http://www.w3.org/2000/svg">
    <path fill="#aaa" d="M0 0h72v72H0Z"/>

    <path fill="#fff" d="M10.9 9.4h50.2V63H10.9Z"/>

    <path fill="#fedcba" d="M23.842,42.51C45.872,29.945,48.052,42.355,
      51.31,39.199999999999996C52.305,38.236999999999995,59.994,
      35.44499999999999,59.994,35.44499999999999S57.244,58.74499999999999,
      47.403999999999996,60.36099999999999C40.026999999999994,61.57299999999999,
      24.679999999999996,62.53699999999999,19.368999999999996,
      60.36099999999999C10.188999999999997,56.60099999999999,
      12.203999999999997,44.01599999999999,13.972999999999995,
      39.82099999999999C16.027999999999995,34.94999999999999,
      25.410999999999994,31.03499999999999,23.308999999999997,
      20.51899999999999C23.122999999999998,19.59199999999999,23.110999999999997,
      18.44899999999999,22.029999999999998,17.98899999999999C20.506999999999998,
      17.34199999999999,17.549999999999997,21.283999999999992,
      14.603999999999997,20.11399999999999C14.603999999999997,
      20.11399999999999,18.395999999999997,11.36999999999999,
      21.543,10.37999999999999C26.061,8.95899999999999,29.406,14.56799999999999,
      29.930999999999997,17.20199999999999C31.048,22.81199999999999,
      25.639999999999997,31.21499999999999,25.134999999999998,
      35.30199999999999C25.107999999999997,35.52199999999999,
      23.842,42.50999999999999,23.842,42.50999999999999Z"/>

    <path fill="#f4aa41" d="M17.763,15.71C17.628,16.995,19.696,
      18.185000000000002,19.926000000000002,18.972C20.221000000000004,
      19.984,15.730000000000002,19.39,15.730000000000002,19.39S17.873,
      14.664000000000001,17.763,15.709Z"/>

    <g fill="none" stroke="#000" stroke-linecap="round"
      stroke-linejoin="round" stroke-width="2">

        <path d="M27.199,41.088C30.244,40.178000000000004,35.682,33.948,
          47.010000000000005,38.288000000000004C55.25900000000001,
          41.449000000000005,59.99400000000001,35.444,59.99400000000001,
          35.444S57.89200000000001,57.794000000000004,47.40400000000001,
          60.361000000000004C40.14200000000001,62.14,24.68000000000001,
          62.537000000000006,19.36900000000001,
          60.361000000000004C10.18900000000001,56.601000000000006,
          11.14400000000001,44.869,13.97300000000001,
          39.821000000000005C16.88400000000001,34.627,24.11500000000001,
          31.243000000000006,24.24100000000001,20.519000000000005"/>

        <path d="M23.77,43.508C24.48,31.426000000000002,
          30.836,23.092000000000002,29.93,17.201000000000004C29.236,
          12.674000000000003,26.157,9.441000000000004,
          21.639,10.864000000000004C18.492,11.854000000000005,14.604,
          20.113000000000007,14.604,20.113000000000007C17.551,
          21.28300000000001,22.03,17.989000000000008,22.03,
          17.989000000000008M49.612,44.31C47.479,47.809000000000005,
          37.712,49.616,32.96,49.735"/>

    </g>

</svg>

<svg viewBox="0 0 72 72" xmlns="http://www.w3.org/2000/svg">
    <path fill="#aaa" d="M0 0h72v72H0Z"/>

    <path fill="#fff" d="M10.9 9.4h50.2V63H10.9Z"/>

    <path fill="#fedcba" d="M23.842 42.51c22.03-12.565 24.21-.155
      27.468-3.31.995-.963 8.684-3.755 8.684-3.755s-2.75 23.3-12.59
      24.916c-7.377 1.212-22.724 2.176-28.035
      0-9.18-3.76-7.165-16.345-5.396-20.54 2.055-4.871 11.438-8.786
      9.336-19.302-.186-.927-.198-2.07-1.279-2.53-1.523-.647-4.48
      3.295-7.426 2.125 0 0 3.792-8.744 6.939-9.734 4.518-1.421 7.863
      4.188 8.388 6.822 1.117 5.61-4.291 14.013-4.796
      18.1-.027.22-1.293 7.208-1.293 7.208Z"/>

    <path fill="#f4aa41" d="M17.763 15.71c-.135 1.285 1.933 2.475 2.163
      3.262.295 1.012-4.196.418-4.196.418s2.143-4.726 2.033-3.681Z"/>

    <g fill="none" stroke="#000" stroke-linecap="round"
      stroke-linejoin="round" stroke-width="2">

        <path d="M27.199 41.088c3.045-.91 8.483-7.14 19.811-2.8 8.249 3.161
          12.984-2.844 12.984-2.844s-2.102 22.35-12.59 24.917c-7.262
          1.779-22.724 2.176-28.035 0-9.18-3.76-8.225-15.492-5.396-20.54
          2.911-5.194 10.142-8.578 10.268-19.302"/>

        <path d="M23.77 43.508c.71-12.082 7.066-20.416
          6.16-26.307-.694-4.527-3.773-7.76-8.291-6.337-3.147.99-7.035
          9.249-7.035 9.249 2.947 1.17 7.426-2.124 7.426-2.124M49.612
          44.31c-2.133 3.499-11.9 5.306-16.652 5.425"/>

    </g>

</svg>
